X:1
T:Title
%%score { ( 1 4 ) | ( 2 3 ) }
L:1/8
M:3/4
K:Eb
V:1 treble nm="Grand Piano"
V:4 treble 
V:2 bass 
V:3 bass 
V:1
 z2 z2[Q:1/4=108] [G,E][DF] | [B,EG]2 [B,EG]2 [DF][EG] | [CEA]4 BG | E2 E2 G2 |[M:2/4] [DF]4 | %5
[M:1/4] EF |[M:3/4] G2 G2 FG | A2 A2 GA | Bc BA [B,EG]F |[M:2/4] E4 |[M:1/4] GA | %11
[M:3/4] [EGB]2 [EGB]2 [EAc]2 | [GB]2 [GB]2 [GB]2 | [Ge]2 d2 c2 |[M:2/4] B4 |[M:1/4] G[FA] | %16
[M:3/4] [GB]2 [GB]2 [EAc]2 | [GB]2 [GB]2 [GB]2 | [Ge]2 [Fd]2 [Ec]2 |[M:2/4] [B,DB]4 | %20
[M:1/4] [B,GB][B,FA] |[M:3/4] [B,EG]4 [B,DF][B,EG] | [CEA]4 BG | E2 E2 G2 |[M:2/4] [DF]2 [DF]2 | %25
[M:1/4] EF |[M:3/4] G2 G2 FG | A2 A2 GA | Bc BA [B,EG][DF] |[M:2/4] [G,E]2 [G,E]2 |] %30
V:2
 z2 z2 z A, | E,2 E,2 B,,E, | A,,4 [E,G,E][E,B,E] | [E,G,B,]2 [E,G,B,]2 [E,B,E]2 | %4
[M:2/4] [B,,B,]4 |[M:1/4] B,-[F,B,D] |[M:3/4] z2 z2 .[A,D]2 | z2 z2 [B,E]2 | %8
 G,A,[K:treble] GF[K:bass] z [A,D] |[M:2/4] [E,G,]4 |[M:1/4] EF |[M:3/4] E,2 E,2 A,,2 | %12
 [E,E]2 [E,E]2 [E,E]2 | [E,B,]2 [G,B,E]2 [A,E]2 |[M:2/4] [E,G,E]4 |[M:1/4] [E,B,E][E,B,] | %16
[M:3/4] [E,E]2 [E,E]2 A,,2 | [E,E]2 [E,E]2 [E,E]2 | [E,B,]2 [F,B,]2 [F,=A,]2 |[M:2/4] B,,4 | %20
[M:1/4] E,D, |[M:3/4] E,4 B,,E, | A,,4 [E,G,E][E,B,E] | [E,G,B,]2 [E,G,B,]2 [E,B,E]2 | %24
[M:2/4] [B,,B,]2 [B,,B,]2 |[M:1/4] [G,B,][F,B,D] |[M:3/4] z2 z2 .[A,D]2 | z2 z2 [B,E]2 | %28
 G,A,[K:treble] GF[K:bass] z A, |[M:2/4] E,2 E,2 |] %30
V:3
 z2 z2 E,2 | x6 | x6 | x6 |[M:2/4] x4 |[M:1/4] G, z |[M:3/4] [E,B,E]2 [E,B,E]2 B,-[F,B,E] | %7
 [F,A,C]2 [F,B,D]2 E,F, | E2[K:treble] [B,E]2[K:bass] B,,2 |[M:2/4] x4 |[M:1/4] [E,B,]2 | %11
[M:3/4] x6 | x6 | x6 |[M:2/4] x4 |[M:1/4] x2 |[M:3/4] x6 | x6 | x6 |[M:2/4] x4 |[M:1/4] x2 | %21
[M:3/4] x6 | x6 | x6 |[M:2/4] x4 |[M:1/4] x2 |[M:3/4] [E,B,E]2 [E,B,E]2 B,-[F,B,E] | %27
 [F,A,C]2 [F,B,D]2 E,F, | E2[K:treble] [B,E]2[K:bass] B,,2 |[M:2/4] x4 |] %30
V:4
 x6 | z2 z2 B,2 | x6 | x6 |[M:2/4] x4 |[M:1/4] x2 |[M:3/4] x6 | x6 | x6 |[M:2/4] x4 |[M:1/4] x2 | %11
[M:3/4] x6 | x6 | x6 |[M:2/4] x4 |[M:1/4] x2 |[M:3/4] x6 | x6 | x6 |[M:2/4] x4 |[M:1/4] x2 | %21
[M:3/4] x6 | x6 | x6 |[M:2/4] x4 |[M:1/4] x2 |[M:3/4] x6 | x6 | x6 |[M:2/4] x4 |] %30

